!! 00008] TT[TB
!! Eigene Aufnahme
!!!OTL: Senjidema
!!!ARE: Mongolei, Erduos
!! Ethnic Group: Menggu
!! IV, 345 (2)
!!!SCT: C0187
!!!YEM: Copyright 1995, estate of Helmut Schaffrath.
**kern
*ICvox
*Ivox
*M4/4
*k[f#c#g#]
*A:
{4.ee
8ff#
4.aa
8ff#
=1
4aa
4cc#
8cc#
8b
4a}
=2
{4aa
4ee
8ff#
8ee
8ccc#
8bb
=3
4.aa
8bb
2aa}
=4
{4.aa
8bb
4.eee
8eee
=5
4ccc#
8.eee
16fff#
8ccc#
8bb
4aa}
=6
{4.aa
8bb
8ccc#
8eee
8aa
8ff#
=7
4.ee
8ff#
2ee}
=8
{4aa
8ee
8ff#
4.aa
8ff#
=9
4aa
4cc#
8cc#
4b
8cc#}
=10
{8ee
8ff#
4aa
4aa
8cc#
8b
=11
2a
2r}
=12
{4aa
4ee
8ff#
8ee
8ccc#
8bb
=13
4.aa
8bb
4gg#
4ff#}
=14
{4.ee
8ff#
4.aa
8ff#
=15
4aa
4cc#
8cc#
4b
8cc#}
=16
{8ee
8ff#
4aa
4aa
8cc#
8b
=17
2a}
{4.a
8b
=18
8cc#
8ee
4ff#
4aa
8cc#
8b
=19
8a
8b
4ee
2a}
==
!!!AGN: Tanzlied, Duan ge
!! He Luding hat nach dieser Melodie ein kurzes Orchesterwerk
!!    geschrieben. - Es geht um ein sehr huebsches Maedchen, das von
!!    seinem Geliebten lange vergebens gesucht wird. Da er sie nicht
!!    finden kann, stuerzt er sich von einem hohen Berg in den Tod.
!!    Saenger: Chao Lun Batou; Variante, v.a. rhythmisch; Notation
!!    trotzdem brauchbar. +++ Zwei Notationsfehler (Phrase 3,9) nach
!!    Transkription korrigiert. Ebenso Takteinteilung in letzter Phrase. ++
!!!ONB: ESAC (Essen Associative Code) Database: CHINA_024
!!!AMT: simple quadruple
!!!AIN: vox
!!!EED: Helmut Schaffrath
!!!EEV: 1.0
*-
